X:906
T:Xiraldilla (CT 435)
R:Xiraldilla
C:Tradicional
S:Msica Tradicional Asturiana, (C) Tello & Tito. Asturies, 2001.
S:http://pagina.de/MusTradAst <telloytito@asturies.org>
N:Xiraldilla, transcrita en Murias, ayuntamiento de Quirs.
A:Asturies
O:Murias (Quirs)
Z:Cancioneru de Torner 435
M:2/4
L:1/8
Q:1/4=160
K:Cm
|c2 (c=B)|G2 =A=B|c2 c=B|G2 =A=B|c2 dd|c4|c2 z2|
B2 AG|F2 (GA)|B2 AG|F2 GA|B2 (BA)|G4|G2 z2||
W:Yo si voi al molino, morena,
W:si voi a la fuente,
W:a la de cuatro caos, salada,
W:es solo por verte.
W:
